docs/public/img/open_in_stackblitz.svg

<svg width="162" height="32" viewBox="0 0 162 32" fill="none" xmlns="http://www.w3.org/2000/svg">
<rect width="162" height="32" rx="4" fill="#1374EF"/>
<rect x="32" width="1" height="32" fill="#1269D3"/>
<path d="M49.1015 16.1515C49.1015 13.3138 47.4032 11.5939 45.1071 11.5939C42.8022 11.5939 41.1083 13.3138 41.1083 16.1515C41.1083 18.9849 42.8022 20.7092 45.1071 20.7092C47.4032 20.7092 49.1015 18.9892 49.1015 16.1515ZM47.7758 16.1515C47.7758 18.3134 46.6321 19.4875 45.1071 19.4875C43.5777 19.4875 42.4383 18.3134 42.4383 16.1515C42.4383 13.9897 43.5777 12.8156 45.1071 12.8156C46.6321 12.8156 47.7758 13.9897 47.7758 16.1515ZM50.9106 23.0833H52.206V19.5525H52.284C52.5179 19.977 52.9945 20.7179 54.2076 20.7179C55.8192 20.7179 56.9889 19.4268 56.9889 17.2736C56.9889 15.1161 55.8019 13.8467 54.1946 13.8467C52.9598 13.8467 52.5136 14.6005 52.284 15.0121H52.1757V13.9333H50.9106V23.0833ZM52.18 17.2606C52.18 15.8699 52.7865 14.9471 53.9173 14.9471C55.0914 14.9471 55.6806 15.9392 55.6806 17.2606C55.6806 18.595 55.074 19.6131 53.9173 19.6131C52.8039 19.6131 52.18 18.66 52.18 17.2606ZM61.5523 20.7222C63.0037 20.7222 64.0305 20.0074 64.3251 18.9243L63.099 18.7033C62.8651 19.3315 62.3018 19.6521 61.5653 19.6521C60.4562 19.6521 59.7111 18.9329 59.6764 17.6505H64.4074V17.1913C64.4074 14.7868 62.969 13.8467 61.4614 13.8467C59.6071 13.8467 58.3854 15.2591 58.3854 17.3039C58.3854 19.3705 59.5898 20.7222 61.5523 20.7222ZM59.6807 16.6801C59.7327 15.7356 60.4173 14.9168 61.47 14.9168C62.4751 14.9168 63.1337 15.662 63.138 16.6801H59.6807ZM67.384 16.6368C67.384 15.5753 68.0339 14.9688 68.935 14.9688C69.8145 14.9688 70.3474 15.545 70.3474 16.5111V20.5879H71.6428V16.3551C71.6428 14.7088 70.7373 13.8467 69.3769 13.8467C68.3761 13.8467 67.722 14.3103 67.4144 15.0164H67.332V13.9333H66.0886V20.5879H67.384V16.6368ZM77.0968 20.5879H78.3921V13.9333H77.0968V20.5879ZM77.751 12.9066C78.1972 12.9066 78.5698 12.56 78.5698 12.1354C78.5698 11.7108 78.1972 11.3599 77.751 11.3599C77.3004 11.3599 76.9321 11.7108 76.9321 12.1354C76.9321 12.56 77.3004 12.9066 77.751 12.9066ZM81.6742 16.6368C81.6742 15.5753 82.3241 14.9688 83.2252 14.9688C84.1047 14.9688 84.6376 15.545 84.6376 16.5111V20.5879H85.933V16.3551C85.933 14.7088 85.0275 13.8467 83.6671 13.8467C82.6664 13.8467 82.0122 14.3103 81.7046 15.0164H81.6222V13.9333H80.3789V20.5879H81.6742V16.6368ZM96.3302 14.046H97.6213C97.5823 12.625 96.3259 11.5939 94.5236 11.5939C92.743 11.5939 91.3783 12.612 91.3783 14.1413C91.3783 15.376 92.2621 16.0995 93.6875 16.4851L94.7359 16.7711C95.6847 17.0223 96.4169 17.3343 96.4169 18.1228C96.4169 18.9892 95.5894 19.5611 94.45 19.5611C93.4189 19.5611 92.561 19.1019 92.4831 18.1358H91.14C91.2267 19.7431 92.4701 20.7352 94.4586 20.7352C96.5425 20.7352 97.7426 19.6391 97.7426 18.1358C97.7426 16.5371 96.3172 15.9176 95.1908 15.6403L94.3243 15.415C93.6311 15.2374 92.7083 14.9125 92.7127 14.0633C92.7127 13.3095 93.4015 12.7506 94.4933 12.7506C95.5114 12.7506 96.2349 13.2272 96.3302 14.046ZM102.589 13.9333H101.224V12.339H99.9286V13.9333H98.9538V14.9731H99.9286V18.9026C99.9242 20.1113 100.847 20.6962 101.869 20.6745C102.281 20.6702 102.558 20.5922 102.71 20.5359L102.476 19.4658C102.389 19.4831 102.229 19.5221 102.021 19.5221C101.601 19.5221 101.224 19.3835 101.224 18.634V14.9731H102.589V13.9333ZM106.202 20.7352C107.303 20.7352 107.922 20.1763 108.169 19.6781H108.221V20.5879H109.486V16.1689C109.486 14.2323 107.961 13.8467 106.904 13.8467C105.7 13.8467 104.591 14.3319 104.157 15.545L105.375 15.8223C105.565 15.35 106.051 14.8951 106.921 14.8951C107.757 14.8951 108.186 15.3327 108.186 16.0865V16.1169C108.186 16.5891 107.701 16.5804 106.505 16.7191C105.245 16.8664 103.954 17.1956 103.954 18.7076C103.954 20.016 104.937 20.7352 106.202 20.7352ZM106.484 19.6954C105.752 19.6954 105.223 19.3662 105.223 18.725C105.223 18.0318 105.838 17.7848 106.588 17.6852C107.008 17.6289 108.004 17.5162 108.191 17.3299V18.1877C108.191 18.9762 107.563 19.6954 106.484 19.6954ZM114.259 20.7222C115.831 20.7222 116.849 19.7777 116.992 18.4824H115.732C115.567 19.2015 115.008 19.6261 114.267 19.6261C113.171 19.6261 112.465 18.712 112.465 17.2606C112.465 15.8353 113.184 14.9385 114.267 14.9385C115.09 14.9385 115.593 15.4583 115.732 16.0822H116.992C116.854 14.7392 115.758 13.8467 114.246 13.8467C112.37 13.8467 111.157 15.2591 111.157 17.2909C111.157 19.2968 112.326 20.7222 114.259 20.7222ZM118.622 20.5879H119.917V18.2267L120.562 17.5812L122.824 20.5879H124.414L121.537 16.7884L124.232 13.9333H122.681L120.03 16.7494H119.917V11.7152H118.622V20.5879ZM125.761 20.5879H129.161C131.224 20.5879 132.155 19.5611 132.155 18.2007C132.155 16.8274 131.193 16.0519 130.314 16.0042V15.9176C131.128 15.7096 131.809 15.1551 131.809 14.046C131.809 12.7333 130.899 11.7152 129.01 11.7152H125.761V20.5879ZM127.099 19.4398V16.5978H129.079C130.154 16.5978 130.825 17.2909 130.825 18.1358C130.825 18.8809 130.318 19.4398 129.032 19.4398H127.099ZM127.099 15.5537V12.8546H128.928C129.989 12.8546 130.496 13.4135 130.496 14.15C130.496 15.0078 129.794 15.5537 128.893 15.5537H127.099ZM135.178 11.7152H133.883V20.5879H135.178V11.7152ZM137.165 20.5879H138.46V13.9333H137.165V20.5879ZM137.819 12.9066C138.266 12.9066 138.638 12.56 138.638 12.1354C138.638 11.7108 138.266 11.3599 137.819 11.3599C137.369 11.3599 137 11.7108 137 12.1354C137 12.56 137.369 12.9066 137.819 12.9066ZM143.553 13.9333H142.189V12.339H140.893V13.9333H139.919V14.9731H140.893V18.9026C140.889 20.1113 141.812 20.6962 142.834 20.6745C143.246 20.6702 143.523 20.5922 143.675 20.5359L143.441 19.4658C143.354 19.4831 143.194 19.5221 142.986 19.5221C142.566 19.5221 142.189 19.3835 142.189 18.634V14.9731H143.553V13.9333ZM145.092 20.5879H150.434V19.4615H146.846V19.4008L150.312 14.8778V13.9333H145.209V15.0598H148.696V15.1204L145.092 19.6998V20.5879Z" fill="white"/>
<path d="M10 17.5882H15.1651L12.1269 25L22 14.4118H16.8349L19.8731 7L10 17.5882Z" fill="white"/>
</svg>

<svg xmlns="http://www.w3.org/2000/svg" viewBox="0 0 162 32" width="162" height="32">
  <title>Open in StackBlitz</title>
  <rect width="162" height="32" rx="4" fill="#1374EF"/>
  <path fill="#1269D3" d="M32 0h1v32h-1z"/>
  <path d="M49.102 16.151c0-2.837-1.699-4.557-3.995-4.557-2.305 0-3.999 1.72-3.999 4.557 0 2.834 1.694 4.558 4 4.558 2.295 0 3.994-1.72 3.994-4.558Zm-1.326 0c0 2.162-1.144 3.337-2.669 3.337-1.53 0-2.669-1.175-2.669-3.337 0-2.161 1.14-3.335 2.67-3.335 1.524 0 2.668 1.174 2.668 3.335Zm3.135 6.932h1.295v-3.53h.078c.234.424.71 1.165 1.924 1.165 1.611 0 2.78-1.291 2.78-3.444 0-2.158-1.186-3.427-2.793-3.427-1.235 0-1.681.754-1.911 1.165h-.108v-1.079H50.91v9.15Zm1.269-5.822c0-1.391.606-2.314 1.737-2.314 1.174 0 1.764.992 1.764 2.314 0 1.334-.607 2.352-1.764 2.352-1.113 0-1.737-.953-1.737-2.352Zm9.372 3.461c1.452 0 2.479-.715 2.773-1.798l-1.226-.22c-.234.627-.797.948-1.534.948-1.109 0-1.854-.72-1.889-2.002h4.731v-.459c0-2.404-1.438-3.344-2.946-3.344-1.854 0-3.076 1.412-3.076 3.457 0 2.067 1.205 3.418 3.167 3.418Zm-1.871-4.042c.052-.944.736-1.763 1.789-1.763 1.005 0 1.664.745 1.668 1.763h-3.457Zm7.703-.043c0-1.062.65-1.668 1.551-1.668.88 0 1.412.576 1.412 1.542v4.077h1.296v-4.233c0-1.646-.906-2.508-2.266-2.508-1 0-1.655.463-1.963 1.17h-.082v-1.084h-1.243v6.655h1.295v-3.951Zm9.713 3.95h1.295v-6.654h-1.295v6.655Zm.654-7.68c.446 0 .819-.347.819-.772 0-.424-.373-.775-.819-.775-.45 0-.819.35-.819.775 0 .425.368.772.819.772Zm3.923 3.73c0-1.062.65-1.668 1.551-1.668.88 0 1.413.576 1.413 1.542v4.077h1.295v-4.233c0-1.646-.906-2.508-2.266-2.508-1 0-1.655.463-1.962 1.17h-.083v-1.084H80.38v6.655h1.295v-3.951Zm14.656-2.591h1.291c-.039-1.421-1.295-2.452-3.097-2.452-1.781 0-3.146 1.018-3.146 2.547 0 1.235.884 1.958 2.31 2.344l1.048.286c.949.251 1.68.563 1.68 1.352 0 .866-.827 1.438-1.966 1.438-1.031 0-1.889-.46-1.967-1.425H91.14c.087 1.607 1.33 2.6 3.319 2.6 2.084 0 3.284-1.097 3.284-2.6 0-1.599-1.426-2.218-2.552-2.496l-.867-.225c-.693-.178-1.616-.502-1.611-1.352 0-.754.689-1.312 1.78-1.312 1.018 0 1.742.476 1.837 1.295Zm6.259-.113h-1.365V12.34h-1.295v1.594h-.975v1.04h.975v3.93c-.005 1.208.918 1.793 1.94 1.771.412-.004.689-.082.841-.138l-.234-1.07c-.087.017-.247.056-.455.056-.42 0-.797-.138-.797-.888v-3.66h1.365v-1.04Zm3.613 6.802c1.101 0 1.72-.559 1.967-1.057h.052v.91h1.265v-4.42c0-1.936-1.525-2.321-2.582-2.321-1.204 0-2.313.485-2.747 1.698l1.218.277c.19-.472.676-.927 1.546-.927.836 0 1.265.438 1.265 1.192v.03c0 .472-.485.463-1.681.602-1.26.147-2.551.477-2.551 1.989 0 1.308.983 2.027 2.248 2.027Zm.282-1.04c-.732 0-1.261-.329-1.261-.97 0-.693.615-.94 1.365-1.04.42-.056 1.416-.169 1.603-.355v.858c0 .788-.628 1.507-1.707 1.507Zm7.775 1.027c1.572 0 2.59-.944 2.733-2.24h-1.26c-.165.72-.724 1.144-1.465 1.144-1.096 0-1.802-.914-1.802-2.365 0-1.426.719-2.322 1.802-2.322.823 0 1.326.52 1.465 1.143h1.26c-.138-1.343-1.234-2.235-2.746-2.235-1.876 0-3.089 1.412-3.089 3.444 0 2.006 1.169 3.431 3.102 3.431Zm4.363-.134h1.295v-2.361l.645-.646 2.262 3.007h1.59l-2.877-3.8 2.695-2.855h-1.551l-2.651 2.816h-.113v-5.034h-1.295v8.873Zm7.139 0h3.4c2.063 0 2.994-1.027 2.994-2.387 0-1.374-.962-2.15-1.841-2.197v-.086c.814-.208 1.495-.763 1.495-1.872 0-1.313-.91-2.33-2.799-2.33h-3.249v8.872Zm1.338-1.148v-2.842h1.98c1.075 0 1.746.693 1.746 1.538 0 .745-.507 1.304-1.793 1.304h-1.933Zm0-3.886v-2.7h1.829c1.061 0 1.568.56 1.568 1.296 0 .858-.702 1.404-1.603 1.404h-1.794Zm8.079-3.839h-1.295v8.873h1.295v-8.873Zm1.987 8.873h1.295v-6.655h-1.295v6.655Zm.654-7.681c.447 0 .819-.347.819-.772 0-.424-.372-.775-.819-.775-.45 0-.819.35-.819.775 0 .425.369.772.819.772Zm5.734 1.026h-1.364V12.34h-1.296v1.594h-.974v1.04h.974v3.93c-.004 1.208.919 1.793 1.941 1.771.412-.004.689-.082.841-.138l-.234-1.07c-.087.017-.247.056-.455.056-.42 0-.797-.138-.797-.888v-3.66h1.364v-1.04Zm1.539 6.655h5.342V19.46h-3.588v-.06l3.466-4.523v-.945h-5.103v1.127h3.487v.06l-3.604 4.58v.888ZM10 17.588h5.165L12.127 25 22 14.412h-5.165L19.873 7 10 17.588Z" fill="#fff"/>
</svg>
